icons/webhint-icon.svg

<?xml version="1.0" encoding="UTF-8"?>
<svg width="256px" height="256px" viewBox="0 0 256 256" version="1.1" xmlns="http://www.w3.org/2000/svg" xmlns:xlink="http://www.w3.org/1999/xlink" preserveAspectRatio="xMidYMid">
    <g>
        <path d="M127.200427,0.00244637771 C161.286409,-0.208130791 194.049501,13.1833586 218.227385,37.2110415 C242.405269,61.2387243 256,93.9177286 256,128.004377 C256,198.592046 198.853141,255.854862 128.265623,256.001309 C57.6781061,256.147195 0.295967016,199.121534 0.00112318334,128.534476 C-0.291456908,57.9474184 56.6141371,0.446206788 127.200427,0.00244637771 Z M127.200427,14.2445387 C64.4090553,14.3324565 13.5285057,65.2130061 13.4405879,128.004377 C13.2271617,158.129351 25.055991,187.09153 46.2979386,208.453629 C67.5398863,229.815727 96.4348857,241.807724 126.560584,241.764334 C189.351955,241.676298 240.232505,190.795749 240.320423,128.004377 C240.320423,65.6039259 189.60019,14.8843811 127.200427,14.2445387 Z M166.880283,91.5244204 C166.300801,92.9445242 166.028123,94.4711027 166.080136,96.0040047 C166.080136,99.8230937 167.597263,103.485763 170.297767,106.186266 C172.998271,108.88677 176.66094,110.403897 180.480029,110.403897 C182.26547,110.572432 184.066262,110.354196 185.75976,109.764055 C190.326715,117.174462 192.762434,125.699953 192.80009,134.404177 C192.80009,183.844037 153.760075,188.484614 127.840269,188.484614 C61.4710131,188.484614 51.8686505,162.923497 51.6832402,156.201888 L51.6804553,156.004015 L48.4805557,156.004015 C37.4985026,155.917715 28.5951242,147.127834 28.326317,136.190269 L28.3207062,135.844166 L28.3207062,131.844119 L37.4408674,131.844119 C44.0108009,131.65388 50.2895197,134.556492 54.4008172,139.684596 C58.0640483,134.572997 63.8822214,131.451889 70.1511551,131.215589 L70.5606201,131.204277 L79.840398,131.204277 L79.840398,136.484008 C79.9693589,141.588785 78.0423945,146.531416 74.4922779,150.201845 C71.0435931,153.767404 66.3440012,155.842085 61.3973206,155.995478 L60.9602331,156.004015 L59.6805485,156.004015 C60.3203908,159.204603 70.0803944,160.484288 72.6411397,160.484288 C79.3977933,160.903372 85.77686,157.33841 88.9605592,151.364127 C91.9594441,145.555148 93.0779357,138.957442 92.1611469,132.48465 C92.1611469,106.564155 99.2007885,85.7644634 143.520534,85.7644634 C151.72498,85.1094976 159.920799,87.1303909 166.880283,91.5244204 Z M205.920297,70.0841983 L193.44062,90.2447357 L189.60019,98.0845243 C189.116008,99.0443821 188.465931,99.9110742 187.679975,100.644582 C185.333872,102.625516 182.170853,103.341526 179.200344,102.564109 C177.716275,102.459682 176.334746,101.769041 175.360602,100.644582 C172.167203,97.1584352 172.167203,91.8099792 175.360602,88.3238327 C175.929351,87.755084 176.4981,87.6918897 176.954744,87.2354864 L177.120513,87.0441481 L205.920297,70.0841983 Z" fill="#4700A3"></path>
    </g>
</svg>

<svg xmlns="http://www.w3.org/2000/svg" viewBox="0 0 256 256.002">
  <path fill="#4700a3" d="M127.2.002A128.002 128.002 0 0 1 256 128.004c0 70.588-57.147 127.85-127.734 127.997C57.678 256.147.296 199.121 0 128.534-.29 57.947 56.614.446 127.201.002zm0 14.243c-62.79.087-113.671 50.968-113.76 113.76a112.96 112.96 0 0 0 113.12 113.76c62.792-.089 113.673-50.97 113.76-113.76 0-62.401-50.72-113.12-113.12-113.76zm39.68 77.28a10.88 10.88 0 0 0-.8 4.479 14.4 14.4 0 0 0 14.4 14.4 12.48 12.48 0 0 0 5.28-.64 47.354 47.354 0 0 1 7.04 24.64c0 49.44-39.04 54.08-64.96 54.08-66.369 0-75.971-25.56-76.157-32.282l-.003-.198h-3.2c-10.982-.086-19.885-8.876-20.154-19.814l-.005-.346v-4h9.12a20.96 20.96 0 0 1 16.96 7.84 20.32 20.32 0 0 1 15.75-8.468l.41-.012h9.28v5.28a19.04 19.04 0 0 1-18.444 19.511l-.437.01h-1.28c.64 3.2 10.4 4.48 12.961 4.48a17.28 17.28 0 0 0 16.32-9.12 31.52 31.52 0 0 0 3.2-18.88c0-25.92 7.04-46.72 51.36-46.72a38.08 38.08 0 0 1 23.36 5.76zm39.04-21.44-12.48 20.16-3.84 7.84a9.12 9.12 0 0 1-1.92 2.56 9.44 9.44 0 0 1-8.48 1.92 5.6 5.6 0 0 1-3.84-1.92 9.12 9.12 0 0 1 0-12.321c.57-.569 1.138-.632 1.595-1.089l.166-.19z"/>
</svg>
